svg/icon/part.svg

<svg xmlns="http://www.w3.org/2000/svg" xmlns:xlink="http://www.w3.org/1999/xlink" width="32" height="32" viewBox="0 0 32 32">
  <defs>
    <linearGradient id="part-c" x1="50%" x2="50%" y1="0%" y2="100%">
      <stop offset="0%" stop-color="#FFF" stop-opacity=".5"/>
      <stop offset="100%" stop-opacity=".5"/>
    </linearGradient>
    <circle id="part-b" cx="16" cy="15" r="15"/>
    <filter id="part-a" width="111.7%" height="111.7%" x="-5.8%" y="-4.2%" filterUnits="objectBoundingBox">
      <feOffset dy=".5" in="SourceAlpha" result="shadowOffsetOuter1"/>
      <feGaussianBlur in="shadowOffsetOuter1" result="shadowBlurOuter1" stdDeviation=".5"/>
      <feComposite in="shadowBlurOuter1" in2="SourceAlpha" operator="out" result="shadowBlurOuter1"/>
      <feColorMatrix in="shadowBlurOuter1" values="0 0 0 0 0   0 0 0 0 0   0 0 0 0 0  0 0 0 0.199473505 0"/>
    </filter>
    <path id="part-e" d="M15.4235663,5.17319727 C16.0684623,4.89260184 16.5282594,5.48729216 16.9258569,5.8847857 C17.6353119,6.4880235 18.3115652,7.12925268 18.9516442,7.80565444 C19.3188419,8.20614792 19.1701428,8.939036 18.6708459,9.16203237 C18.2869483,9.37142896 17.8180513,9.21363153 17.5237531,8.92203628 C16.751358,8.18204832 16.0123626,7.40476096 15.2096676,6.69767247 C14.7119708,6.29107909 14.8136701,5.40769346 15.4235663,5.17289728 M22.4582222,7.2244639 C22.8953195,6.98926772 23.5947151,7.18046461 23.7162143,7.70085615 C23.9013132,8.16364862 23.603915,8.62174116 23.2776171,8.92983615 C22.5629215,9.63532467 21.8676259,10.3605129 21.1729303,11.0858011 C20.9195318,11.3923961 20.4734346,11.4742947 20.1153369,11.3088974 C19.5979401,11.0949009 19.458341,10.3181136 19.8483386,9.92511995 C20.7254331,9.03303447 21.4993282,8.03315074 22.4583222,7.2244639 M8.49010976,7.36866155 C8.9454069,7.09406602 9.50830337,7.27606306 9.84520126,7.64935698 C10.6027965,8.41394454 11.3841916,9.15293252 12.1500868,9.90552027 C12.6568836,10.3743126 12.3033859,11.3665965 11.5962903,11.3696964 C11.004494,11.460795 10.690396,10.8750045 10.2942984,10.5549097 C9.6001028,9.97991906 8.96400679,9.33992948 8.33421073,8.69473997 C7.97761297,8.32754595 8.0842123,7.65395691 8.49050975,7.36866155 M9.07780607,11.888588 C9.84100129,11.5941928 10.5860966,12.5561771 10.1100996,13.2190664 C9.54710313,13.9534544 8.81420773,14.5436448 8.20011157,15.2371335 C7.83741385,15.6103274 7.49911597,16.1838181 6.89511975,16.1110193 C6.18802419,16.0837197 5.83292641,15.1010357 6.34732319,14.6241435 C7.27601737,13.735058 8.01341274,12.6106763 9.07870607,11.888488 M24.5538091,14.0156534 C25.0788058,13.672759 25.8709008,14.0626526 25.8877007,14.6956423 C25.9650002,15.2903327 25.3748039,15.6044275 25.050006,16.003521 C24.4780095,16.6923098 23.8500135,17.3341994 23.2018175,17.9516893 C22.7284205,18.3991821 21.8437261,18.0850872 21.7587266,17.4373977 C21.6479273,16.7682086 22.2761233,16.3525154 22.6722209,15.9247223 C23.3277168,15.3162322 23.8815133,14.5986439 24.5537091,14.0159534 M11.0685936,18.7206768 C11.5785904,18.4156818 12.3523855,18.7782759 12.3644855,19.3972658 C12.4585849,19.9950561 11.8682886,20.3122509 11.5450906,20.7112444 C10.9744942,21.4012332 10.3386982,22.0342229 9.69690219,22.6594127 C9.27960481,23.0812059 8.39041038,22.8778092 8.27201112,22.272519 C8.07011239,21.6884285 8.56640928,21.2165362 8.94420691,20.8497422 C9.67720232,20.1639534 10.3141983,19.3797661 11.0685936,18.7211768 M20.1306368,18.6978772 C20.412935,18.6008788 20.7706328,18.5932789 21.0091313,18.7965756 C21.8923257,19.6356619 22.8315199,20.4154493 23.6616147,21.3106347 C23.9180131,21.5701305 23.9408129,22.0055234 23.770914,22.3180183 C23.5309155,22.8794092 22.7086206,22.8930089 22.3095231,22.4955154 C21.5038282,21.7355278 20.729533,20.9373408 19.9195381,20.1801531 C19.4295412,19.7993593 19.5447405,18.9177736 20.1305368,18.6977772 M13.3310794,20.8432423 C13.7510768,20.615646 14.2445737,20.8311425 14.5465718,21.1512373 C15.308267,21.906825 16.0699622,22.6624127 16.8606573,23.3877009 C17.380654,23.8822928 17.0290562,24.8852765 16.2961608,24.8927764 C15.7044645,24.9627753 15.3961665,24.3753848 14.998769,24.0537901 C14.3087733,23.4816994 13.6679773,22.8520096 13.0487812,22.2038202 C12.6754835,21.8047267 12.8271826,21.0629387 13.3309794,20.8428423 M11.9800879,5.93628486 C11.9801283,6.28720879 11.7687605,6.6035991 11.4445536,6.73791056 C11.1203466,6.87222201 10.7471545,6.7980014 10.4990113,6.54986071 C10.2508682,6.30172002 10.1766468,5.92853162 10.3109596,5.60432792 C10.4452724,5.28012422 10.7616659,5.06875853 11.1125933,5.06879897 C11.5916973,5.06879897 11.9800879,5.45718563 11.9800879,5.93628486 M14.508872,8.24354732 C14.508872,8.72263352 14.1205018,9.11101479 13.6414108,9.11103319 C13.1623198,9.1110516 12.7739197,8.72270018 12.7738829,8.24361397 C12.7738461,7.76452777 13.1621865,7.37611666 13.6412775,7.37606143 C13.8713687,7.37603491 14.092045,7.46741877 14.2547534,7.63010681 C14.4174618,7.79279484 14.508872,8.01345843 14.508872,8.24354732 M7.73521449,10.3631128 C7.73529538,10.7140367 7.52396405,11.0304514 7.1997726,11.1648002 C6.87558114,11.2991491 6.50238045,11.2249715 6.25420867,10.9768594 C6.0060369,10.7287473 5.93177253,10.3555675 6.06604795,10.0313483 C6.20032338,9.70712911 6.51669248,9.49572695 6.86761993,9.49572694 C7.09769379,9.49570042 7.31835496,9.58707055 7.48106051,9.74973696 C7.64376605,9.91240337 7.73518797,10.1330413 7.73521449,10.3631128 M21.5071282,5.86748598 C21.5071281,6.21838766 21.2957266,6.53472977 20.9715169,6.66897663 C20.6473073,6.80322349 20.2741511,6.72893174 20.0260809,6.48074957 C19.7780107,6.2325674 19.7038903,5.85938067 19.838288,5.53523625 C19.9726857,5.21109183 20.2891284,4.99983829 20.6400336,5.00000009 C20.8701156,4.99997357 21.0907816,5.09136062 21.2534742,5.25405153 C21.4161667,5.41674244 21.5075547,5.63740629 21.5075282,5.86748598 M26,10.1455164 C26,10.6246156 25.6116095,11.0130023 25.1325054,11.0130023 C24.6534014,11.0130023 24.2650109,10.6246156 24.2650109,10.1455164 C24.2650109,9.66641714 24.6534014,9.27803048 25.1325054,9.27803048 C25.6116095,9.27803048 26,9.66641714 26,10.1455164 M23.6290149,12.6380758 C23.6290701,13.117175 23.2407243,13.5056065 22.7616203,13.5056617 C22.2825163,13.5057169 21.894081,13.117375 21.8940257,12.6382758 C21.8939705,12.1591766 22.2823163,11.7707452 22.7614203,11.7706899 C22.9914942,11.7706634 23.2121553,11.8620335 23.3748609,12.0246999 C23.5375664,12.1873664 23.6289883,12.4080042 23.6290149,12.6380758 M25.996,19.6440618 C25.996,20.123148 25.6076298,20.5115293 25.1285388,20.5115477 C24.6494478,20.5115661 24.2610477,20.1232147 24.2610109,19.6441285 C24.2609741,19.1650423 24.6493145,18.7766312 25.1284055,18.7765759 C25.3584967,18.7765494 25.579173,18.8679333 25.7418814,19.0306213 C25.9045898,19.1933093 25.996,19.4139729 25.996,19.6440618 M19.2300424,21.7597274 C19.2300829,22.1106422 19.0187259,22.4270262 18.6945312,22.5613435 C18.3703366,22.6956608 17.9971523,22.6214586 17.7490012,22.3733386 C17.5008502,22.1252186 17.4266042,21.7520466 17.5608855,21.4278397 C17.6951667,21.1036328 18.0115295,20.8922415 18.3624479,20.8922415 C18.5925391,20.892215 18.8132154,20.9835988 18.9759238,21.1462869 C19.1386322,21.3089749 19.2300424,21.5296385 19.2300424,21.7597274 M21.7260268,24.1321888 C21.7261077,24.4831127 21.5147764,24.7995274 21.1905849,24.9338762 C20.8663934,25.068225 20.4931928,24.9940474 20.245021,24.7459354 C19.9968492,24.4978233 19.9225848,24.1246434 20.0568603,23.8004242 C20.1911357,23.4762051 20.5075048,23.2648029 20.8584322,23.2648029 C21.0885061,23.2647764 21.3091673,23.3561465 21.4718728,23.5188129 C21.6345783,23.6814793 21.7260003,23.9021172 21.7260268,24.1321888 M12.2252863,24.1321888 C12.2253268,24.4831127 12.013959,24.799503 11.689752,24.9338145 C11.3655451,25.0681259 10.992353,24.9939053 10.7442098,24.7457646 C10.4960666,24.4976239 10.4218453,24.1244355 10.5561581,23.8002318 C10.6904709,23.4760281 11.0068643,23.2646625 11.3577918,23.2647029 C11.8368958,23.2647029 12.2252863,23.6530896 12.2252863,24.1321888 M10.1093996,17.3378993 C10.1094401,17.6888233 9.89807225,18.0052136 9.57386531,18.139525 C9.24965836,18.2738365 8.87646623,18.1996159 8.62832305,17.9514752 C8.38017988,17.7033345 8.30595852,17.3301461 8.44027133,17.0059424 C8.57458413,16.6817387 8.8909776,16.470373 9.24190504,16.4704135 C9.72100906,16.4704135 10.1093996,16.8588001 10.1093996,17.3378993 M7.73521449,19.8590583 C7.73525494,20.2099731 7.52389795,20.5263571 7.19970329,20.6606744 C6.87550862,20.7949918 6.50232433,20.7207895 6.25417329,20.4726695 C6.00602225,20.2245496 5.93177621,19.8513776 6.06605751,19.5271707 C6.2003388,19.2029638 6.51670158,18.9915724 6.86761993,18.9915724 C7.09771112,18.9915459 7.31838744,19.0829298 7.48109586,19.2456178 C7.64380428,19.4083058 7.73521449,19.6289694 7.73521449,19.8590583"/>
    <filter id="part-d" width="117.5%" height="117.5%" x="-8.8%" y="-6.2%" filterUnits="objectBoundingBox">
      <feOffset dy=".5" in="SourceAlpha" result="shadowOffsetOuter1"/>
      <feGaussianBlur in="shadowOffsetOuter1" result="shadowBlurOuter1" stdDeviation=".5"/>
      <feColorMatrix in="shadowBlurOuter1" values="0 0 0 0 0   0 0 0 0 0   0 0 0 0 0  0 0 0 0.204257246 0"/>
    </filter>
  </defs>
  <g fill="none" fill-rule="evenodd">
    <use fill="#000" filter="url(#part-a)" xlink:href="#part-b"/>
    <use fill="#03E8B0" xlink:href="#part-b"/>
    <use fill="url(#part-c)" style="mix-blend-mode:soft-light" xlink:href="#part-b"/>
    <circle cx="16" cy="15" r="14.5" stroke="#000" stroke-opacity=".097"/>
    <g fill-rule="nonzero">
      <use fill="#000" filter="url(#part-d)" xlink:href="#part-e"/>
      <use fill="#FFF" fill-rule="evenodd" xlink:href="#part-e"/>
    </g>
  </g>
</svg>

<svg xmlns="http://www.w3.org/2000/svg" xmlns:xlink="http://www.w3.org/1999/xlink" width="32" height="32"><defs><linearGradient id="c" x1="50%" x2="50%" y1="0%" y2="100%"><stop offset="0%" stop-color="#FFF" stop-opacity=".5"/><stop offset="100%" stop-opacity=".5"/></linearGradient><circle id="b" cx="16" cy="15" r="15"/><filter id="a" width="111.7%" height="111.7%" x="-5.8%" y="-4.2%" filterUnits="objectBoundingBox"><feOffset dy=".5" in="SourceAlpha" result="shadowOffsetOuter1"/><feGaussianBlur in="shadowOffsetOuter1" result="shadowBlurOuter1" stdDeviation=".5"/><feComposite in="shadowBlurOuter1" in2="SourceAlpha" operator="out" result="shadowBlurOuter1"/><feColorMatrix in="shadowBlurOuter1" values="0 0 0 0 0 0 0 0 0 0 0 0 0 0 0 0 0 0 0.199473505 0"/></filter><path id="e" d="M15.424 5.173c.644-.28 1.104.314 1.502.712.71.603 1.386 1.244 2.026 1.92.367.401.218 1.134-.281 1.357-.384.21-.853.052-1.147-.24-.773-.74-1.512-1.517-2.314-2.224-.498-.407-.396-1.29.214-1.525m7.034 2.051c.437-.235 1.137-.044 1.258.477.185.463-.112.92-.438 1.229-.715.705-1.41 1.43-2.105 2.156-.253.306-.7.388-1.058.223-.517-.214-.657-.99-.267-1.384.877-.892 1.651-1.892 2.61-2.7M8.49 7.368c.455-.275 1.018-.093 1.355.28.758.765 1.54 1.504 2.305 2.257.507.468.153 1.46-.554 1.464-.592.09-.906-.495-1.302-.815-.694-.575-1.33-1.215-1.96-1.86-.356-.367-.25-1.041.157-1.326m.587 4.52c.763-.295 1.508.667 1.032 1.33-.563.734-1.296 1.325-1.91 2.018-.363.373-.7.947-1.305.874-.707-.027-1.062-1.01-.548-1.487.929-.889 1.666-2.013 2.732-2.736m15.475 2.128c.525-.343 1.317.047 1.334.68.077.594-.513.908-.838 1.308-.572.688-1.2 1.33-1.848 1.948-.474.447-1.358.133-1.443-.515-.111-.669.517-1.084.913-1.512.656-.609 1.21-1.326 1.882-1.909m-13.485 4.705c.51-.305 1.283.057 1.295.676.095.598-.496.915-.819 1.314-.57.69-1.206 1.323-1.848 1.948-.417.422-1.307.219-1.425-.386-.202-.585.294-1.056.672-1.423.733-.686 1.37-1.47 2.125-2.129m9.062-.023c.282-.097.64-.105.878.099.883.839 1.823 1.618 2.653 2.514.256.26.279.695.109 1.007-.24.561-1.062.575-1.461.178-.806-.76-1.58-1.559-2.39-2.316-.49-.38-.375-1.262.21-1.482m-6.799 2.145c.42-.227.914-.012 1.216.308a82.32 82.32 0 0 0 2.314 2.237c.52.494.168 1.497-.565 1.505-.592.07-.9-.518-1.297-.84a23.19 23.19 0 0 1-1.95-1.85c-.374-.398-.222-1.14.282-1.36m-1.35-14.907a.868.868 0 1 1-1.736 0 .868.868 0 0 1 1.735 0m2.529 2.308a.867.867 0 1 1-1.735 0 .867.867 0 0 1 1.735 0m-6.774 2.12a.868.868 0 1 1-1.735 0 .868.868 0 0 1 1.735 0m13.772-4.497a.867.867 0 1 1-1.736 0 .867.867 0 0 1 1.737 0M26 10.146a.867.867 0 1 1-1.735 0 .867.867 0 0 1 1.735 0m-2.371 2.492a.867.867 0 1 1-1.735 0 .867.867 0 0 1 1.735 0m2.367 7.006a.867.867 0 1 1-1.735 0 .867.867 0 0 1 1.735 0M19.23 21.76a.868.868 0 1 1-1.735 0 .868.868 0 0 1 1.735 0m2.496 2.372a.868.868 0 1 1-1.735 0 .868.868 0 0 1 1.735 0m-9.5 0a.868.868 0 1 1-1.736 0 .868.868 0 0 1 1.735 0m-2.116-6.794a.868.868 0 1 1-1.735 0 .868.868 0 0 1 1.735 0m-2.374 2.521a.868.868 0 1 1-1.735 0 .868.868 0 0 1 1.735 0"/><filter id="d" width="117.5%" height="117.5%" x="-8.8%" y="-6.2%" filterUnits="objectBoundingBox"><feOffset dy=".5" in="SourceAlpha" result="shadowOffsetOuter1"/><feGaussianBlur in="shadowOffsetOuter1" result="shadowBlurOuter1" stdDeviation=".5"/><feColorMatrix in="shadowBlurOuter1" values="0 0 0 0 0 0 0 0 0 0 0 0 0 0 0 0 0 0 0.204257246 0"/></filter></defs><g fill="none" fill-rule="evenodd"><use fill="#000" filter="url(#a)" xlink:href="#b"/><use fill="#03E8B0" xlink:href="#b"/><use fill="url(#c)" style="mix-blend-mode:soft-light" xlink:href="#b"/><circle cx="16" cy="15" r="14.5" stroke="#000" stroke-opacity=".097"/><g fill-rule="nonzero"><use fill="#000" filter="url(#d)" xlink:href="#e"/><use fill="#FFF" fill-rule="evenodd" xlink:href="#e"/></g></g></svg>
